icons/glyphs/glyph-webcam.svg

<?xml version="1.0" encoding="UTF-8" standalone="no"?><svg height="16" viewBox="0 0 4.2333333 4.2333333" width="16" xmlns="http://www.w3.org/2000/svg"><sodipodi:namedview><inkscape:grid/></sodipodi:namedview><metadata><rdf:RDF><cc:Work><dc:format>image/svg+xml</dc:format><dc:type/><dc:title/></cc:Work></rdf:RDF></metadata><path d="m8 0a8.0000006 8.0000006 0 0 0 -8 8 8.0000006 8.0000006 0 0 0 8 8 8.0000006 8.0000006 0 0 0 8-8 8.0000006 8.0000006 0 0 0 -8-8zm0 1.5a.75509572.75509572 0 0 1  .7558594.7558594.75509572.75509572 0 0 1 -.7558594.7539062.75509572.75509572 0 0 1 -.7558594-.7539062.75509572.75509572 0 0 1  .7558594-.7558594zm0 2.8710938a3.6289914 3.6289914 0 0 1 3.628906 3.6289062 3.6289914 3.6289914 0 0 1 -3.628906 3.628906 3.6289914 3.6289914 0 0 1 -3.6289062-3.628906 3.6289914 3.6289914 0 0 1 3.6289062-3.6289062z" fill="#d0d0d0" stroke-width="1.7" transform="scale(.26458333)"/><path d="m2.1166667 1.4652868c-.1166405.000273-.2310682.031858-.3313313.091456l.5524437.3189934v-.3709123c-.070859-.0258825-.1456748-.0392602-.2211124-.0395371zm.3191939.083978v.6383543l.3218298-.1857933c-.0343733-.1913146-.1523974-.3572813-.3218298-.4525606zm-.7386148.06994c-.1468181.1235521-.2316877.3055501-.2319626.497431.000071.00245.000148.00489.0002416.00736l.5530574-.3193037zm.1002269.4264483-.3218298.1857933c.034355.1913369.1523826.357329.3218298.4526221zm.9703323.063627-.5530569.3192383.3214007.1855481c.1467954-.1235629.2316418-.3055591.2319014-.49743-.000071-.00245-.0001479-.00489-.0002428-.00736zm-.8722507.2482558v.3709736c.070858.025882.1456748.03926.2211124.039537.1166671-.0002775.2311178-.031887.3313928-.091517z" fill="#fff"/></svg>

<?xml version="1.0" encoding="UTF-8" standalone="no"?>
<!-- Created with Inkscape (http://www.inkscape.org/) -->

<svg
     xmlns:dc="http://purl.org/dc/elements/1.1/"
     xmlns:cc="http://creativecommons.org/ns#"
     xmlns:rdf="http://www.w3.org/1999/02/22-rdf-syntax-ns#"
     xmlns:svg="http://www.w3.org/2000/svg"
     xmlns="http://www.w3.org/2000/svg"
     xmlns:sodipodi="http://sodipodi.sourceforge.net/DTD/sodipodi-0.dtd"
     xmlns:inkscape="http://www.inkscape.org/namespaces/inkscape"
     width="16"
     height="16"
     viewBox="0 0 4.2333333 4.2333333"
     version="1.1"
     id="svg8"
     inkscape:version="0.92+devel (78cebbf91a, 2017-07-21, custom)"
     sodipodi:docname="glyph-webcam.svg">
    <defs
         id="defs2">
        <style
             id="current-color-scheme">      .ColorScheme-Text {
        color:#d0d0d0;
        stop-color:#d0d0d0;
      }
      .ColorScheme-Background {
        color:#212121;
        stop-color:#212121;
      }
      .ColorScheme-Highlight {
        color:#0039a9;
        stop-color:#0039a9;
      }
      .ColorScheme-ViewText {
        color:#d0d0d0;
        stop-color:#d0d0d0;
      }
      .ColorScheme-ViewBackground {
        color:#19191b;
        stop-color:#19191b;
      }
      .ColorScheme-ViewHover {
        color:#005cc7;
        stop-color:#005cc7;
      }
      .ColorScheme-ViewFocus{
        color:#002466;
        stop-color:#002466;
      }
      .ColorScheme-ButtonText {
        color:#d0d0d0;
        stop-color:#d0d0d0;
      }
      .ColorScheme-ButtonBackground {
        color:#232323;
        stop-color:#232323;                             
      }                                                 
      .ColorScheme-ButtonHover {                        
        color:#005cc7;                                  
        stop-color:#005cc7;                             
      }                                                 
      .ColorScheme-ButtonFocus{                         
        color:#0039a9;                                  
        stop-color:#0039a9;                             
      }</style>
    </defs>
    <sodipodi:namedview
         id="base"
         pagecolor="#002466"
         bordercolor="#ffffff"
         borderopacity="0.38039216"
         inkscape:pageopacity="1"
         inkscape:pageshadow="2"
         inkscape:zoom="19.357048"
         inkscape:cx="8"
         inkscape:cy="8"
         inkscape:document-units="px"
         inkscape:current-layer="svg8"
         inkscape:document-rotation="0"
         showgrid="false"
         inkscape:showpageshadow="false"
         borderlayer="true"
         inkscape:window-width="1920"
         inkscape:window-height="1051"
         inkscape:window-x="0"
         inkscape:window-y="0"
         inkscape:window-maximized="1"
         units="px"
         inkscape:snap-bbox="true"
         inkscape:object-paths="true"
         inkscape:snap-page="true">
        <inkscape:grid
             type="xygrid"
             id="grid845" />
    </sodipodi:namedview>
    <metadata
         id="metadata5">
        <rdf:RDF>
            <cc:Work
                 rdf:about="">
                <dc:format>image/svg+xml</dc:format>
                <dc:type
                     rdf:resource="http://purl.org/dc/dcmitype/StillImage" />
                <dc:title></dc:title>
            </cc:Work>
        </rdf:RDF>
    </metadata>
    <path
         style="display:inline;fill:#d0d0d0;stroke-width:1.70000017"
         d="M 8 0 A 8.0000006 8.0000006 0 0 0 0 8 A 8.0000006 8.0000006 0 0 0 8 16 A 8.0000006 8.0000006 0 0 0 16 8 A 8.0000006 8.0000006 0 0 0 8 0 z M 8 1.5 A 0.75509572 0.75509572 0 0 1 8.7558594 2.2558594 A 0.75509572 0.75509572 0 0 1 8 3.0097656 A 0.75509572 0.75509572 0 0 1 7.2441406 2.2558594 A 0.75509572 0.75509572 0 0 1 8 1.5 z M 8 4.3710938 A 3.6289914 3.6289914 0 0 1 11.628906 8 A 3.6289914 3.6289914 0 0 1 8 11.628906 A 3.6289914 3.6289914 0 0 1 4.3710938 8 A 3.6289914 3.6289914 0 0 1 8 4.3710938 z "
         transform="scale(0.26458333)"
         id="path852"
         inkscape:label="#1" />
    <path
         inkscape:label="#2"
         sodipodi:nodetypes="cccccccccccccccccccccccccccc"
         inkscape:connector-curvature="0"
         id="path4518"
         d="m 2.1166667,1.4652868 c -0.1166405,2.73e-4 -0.2310682,0.031858 -0.3313313,0.091456 L 2.3377791,1.8757362 V 1.5048239 C 2.2669201,1.4789414 2.1921043,1.4655637 2.1166667,1.4652868 Z m 0.3191939,0.083978 V 2.1876191 L 2.7576904,2.0018258 C 2.7233171,1.8105112 2.605293,1.6445445 2.4358606,1.5492652 Z m -0.7386148,0.06994 C 1.5504277,1.7427569 1.4655581,1.9247549 1.4652832,2.1166358 c 7.1e-5,0.00245 1.48e-4,0.00489 2.416e-4,0.00736 L 2.0185822,1.8046921 Z M 1.7974727,2.0456531 1.4756429,2.2314464 c 0.034355,0.1913369 0.1523826,0.357329 0.3218298,0.4526221 z M 2.767805,2.1092801 2.2147481,2.4285184 2.5361488,2.6140665 c 0.1467954,-0.1235629 0.2316418,-0.3055591 0.2319014,-0.49743 -7.1e-5,-0.00245 -1.479e-4,-0.00489 -2.428e-4,-0.00736 z M 1.8955543,2.3575359 v 0.3709736 c 0.070858,0.025882 0.1456748,0.03926 0.2211124,0.039537 0.1166671,-2.775e-4 0.2311178,-0.031887 0.3313928,-0.091517 z"
         style="vector-effect:none;fill:#ffffff;stroke:none;stroke-width:0.37862357;stroke-linecap:square;stroke-miterlimit:4;stroke-dasharray:none" />
</svg>
